public/assets/icons/computer.svg

<svg xmlns="http://www.w3.org/2000/svg" viewBox="-2 -4 24 24" width="24" height="24" preserveAspectRatio="xMinYMin" class="jam jam-computer"><path d='M2 13v1h3V2H2v9h1v2H2zM1 0h5a1 1 0 0 1 1 1v14a1 1 0 0 1-1 1H1a1 1 0 0 1-1-1V1a1 1 0 0 1 1-1zm9 3h8a2 2 0 0 1 2 2v6a2 2 0 0 1-2 2h-8a2 2 0 0 1-2-2V5a2 2 0 0 1 2-2zm0 2v6h8V5h-8zm2 9h4a1 1 0 0 1 0 2h-4a1 1 0 0 1 0-2z'/></svg>

<svg xmlns="http://www.w3.org/2000/svg" width="20" height="16" viewBox="0 0 20 16">
  <path id="computer" d="M2,13v1H5V2H2v9H3v2ZM1,0H6A1,1,0,0,1,7,1V15a1,1,0,0,1-1,1H1a1,1,0,0,1-1-1V1A1,1,0,0,1,1,0Zm9,3h8a2,2,0,0,1,2,2v6a2,2,0,0,1-2,2H10a2,2,0,0,1-2-2V5A2,2,0,0,1,10,3Zm0,2v6h8V5Zm2,9h4a1,1,0,0,1,0,2H12a1,1,0,0,1,0-2Z" fill="#f2f2f2"/>
</svg>
